usr/share/icons/biglinux-icons-material/scalable/apps/preferences-desktop-screensaver.svg

<svg width="24" height="24" viewBox="0 0 24 24" fill="none" xmlns="http://www.w3.org/2000/svg">
<path fill-rule="evenodd" clip-rule="evenodd" d="M9.3775 0.123915C9.50824 0.125307 9.6332 0.108652 9.75239 0.073954C11.3187 -0.0286516 12.8849 -0.0244899 14.451 0.0864444C15.871 0.197086 17.2456 0.505183 18.5748 1.01073C20.7846 1.92048 22.2966 3.49843 23.1109 5.74457C23.5766 7.0969 23.8516 8.4875 23.9357 9.91634C24.0521 11.7106 24.0105 13.5009 23.8107 15.2872C23.6612 16.5427 23.3363 17.7501 22.836 18.9094C21.9081 20.9194 20.4044 22.3058 18.3249 23.0687C16.6398 23.6381 14.9069 23.9378 13.1264 23.968C11.1236 24.0721 9.14087 23.9222 7.17815 23.5183C3.56552 22.7136 1.337 20.5111 0.49263 16.9109C0.134306 15.2903 -0.0281463 13.6499 0.00527377 11.9897C-0.0347169 10.2244 0.152728 8.4841 0.567607 6.76878C1.45278 3.40263 3.58964 1.31674 6.97821 0.511116C7.7678 0.318078 8.56757 0.18901 9.3775 0.123915Z" fill="url(#paint0_radial_1_142)"/>
<path d="M12 3C9.507 3 7.5 5.007 7.5 7.5V9.75H9V7.5C9 5.838 10.338 4.5 12 4.5C13.662 4.5 15 5.838 15 7.5V9.75H16.5V7.5C16.5 5.007 14.493 3 12 3ZM12 12.75C11.5845 12.75 11.25 13.0845 11.25 13.5V16.5C11.25 16.9155 11.5845 17.25 12 17.25C12.4155 17.25 12.75 16.9155 12.75 16.5V13.5C12.75 13.0845 12.4155 12.75 12 12.75Z" fill="#FAFAFA"/>
<path d="M8.25 9C6.1725 9 4.5 10.6725 4.5 12.75V17.25C4.5 19.3275 6.1725 21 8.25 21H15.75C17.8275 21 19.5 19.3275 19.5 17.25V12.75C19.5 10.6725 17.8275 9 15.75 9H8.25ZM8.25 10.5H15.75C16.9965 10.5 18 11.5035 18 12.75V17.25C18 18.4965 16.9965 19.5 15.75 19.5H8.25C7.0035 19.5 6 18.4965 6 17.25V12.75C6 11.5035 7.0035 10.5 8.25 10.5Z" fill="#FAFAFA"/>
<defs>
<radialGradient id="paint0_radial_1_142" cx="0" cy="0" r="1" gradientUnits="userSpaceOnUse" gradientTransform="translate(12) rotate(90) scale(24)">
<stop stop-color="#98A5FF"/>
<stop offset="1" stop-color="#1F296B"/>
</radialGradient>
</defs>
</svg>

<svg xmlns="http://www.w3.org/2000/svg" width="24" height="24" fill="none"><path fill="url(#a)" fill-rule="evenodd" d="M9.377.124c.131.001.256-.015.375-.05a34.502 34.502 0 0 1 4.699.012c1.42.111 2.795.42 4.124.925 2.21.91 3.722 2.487 4.536 4.734.466 1.352.74 2.743.825 4.171a30.475 30.475 0 0 1-.125 5.371 12.962 12.962 0 0 1-.975 3.622c-.928 2.01-2.432 3.397-4.511 4.16-1.685.57-3.418.869-5.199.899a23.372 23.372 0 0 1-5.948-.45c-3.612-.804-5.841-3.007-6.685-6.607a20.778 20.778 0 0 1-.488-4.921c-.04-1.766.148-3.506.563-5.221C1.453 3.403 3.59 1.317 6.978.51c.79-.193 1.59-.322 2.4-.387Z" clip-rule="evenodd"/><path fill="#FAFAFA" d="M12 3a4.49 4.49 0 0 0-4.5 4.5v2.25H9V7.5c0-1.662 1.338-3 3-3s3 1.338 3 3v2.25h1.5V7.5A4.49 4.49 0 0 0 12 3Zm0 9.75a.748.748 0 0 0-.75.75v3c0 .416.335.75.75.75s.75-.334.75-.75v-3a.748.748 0 0 0-.75-.75Z"/><path fill="#FAFAFA" d="M8.25 9a3.742 3.742 0 0 0-3.75 3.75v4.5A3.742 3.742 0 0 0 8.25 21h7.5a3.742 3.742 0 0 0 3.75-3.75v-4.5A3.742 3.742 0 0 0 15.75 9h-7.5Zm0 1.5h7.5A2.245 2.245 0 0 1 18 12.75v4.5a2.245 2.245 0 0 1-2.25 2.25h-7.5A2.245 2.245 0 0 1 6 17.25v-4.5a2.245 2.245 0 0 1 2.25-2.25Z"/><defs><radialGradient id="a" cx="0" cy="0" r="1" gradientTransform="matrix(0 24 -24 0 12 0)" gradientUnits="userSpaceOnUse"><stop stop-color="#98A5FF"/><stop offset="1" stop-color="#1F296B"/></radialGradient></defs></svg>
